X:730
T: Molly from Longford
T: Mail\'i \'on Longfort
S: B.Breathnach:"Ceol Rince na hEireann" IV/74
Z: B.Black
L: 1/8
M: 12/8
Q: 360
R: jig
K: Am
G2E E^DE G2E =D3|G2E E^DE A2c B2A|
G2E E^DE G2E =D3|c2A B2G A2c B2A|
G2E E^DE G2E =D3|G2E E^DE A2c B2A|
G2E E^DE G2E =D3|c2A B2G A3 A3 ||
Bcd e2d B2e e2d|c2A B2G A2E E^DE|
Bcd e2d B2e e2d|c2A B2G A3 AAA|
Bcd e2d B2e e2d|c2A B2G A2E E^DE|
Bcd e2d eee e2d|c2A B2G A3 B2A ||
